assets/icons/search.svg

<svg width="27" height="28" viewBox="0 0 27 28" fill="none" xmlns="http://www.w3.org/2000/svg">
<path fill-rule="evenodd" clip-rule="evenodd" d="M20.8086 19.1848L26.8075 25.1909C27.0754 25.4888 27.0622 25.945 26.7775 26.2269L25.7277 27.278C25.5869 27.4201 25.3952 27.5001 25.1953 27.5001C24.9953 27.5001 24.8037 27.4201 24.6629 27.278L18.664 21.2719C18.4981 21.1056 18.3475 20.9247 18.2141 20.7313L17.0893 19.2298C15.2282 20.7177 12.9171 21.5278 10.5355 21.5271C5.62785 21.5442 1.36328 18.1547 0.266542 13.3654C-0.830192 8.57602 1.53362 3.66501 5.95852 1.5398C10.3834 -0.585405 15.6885 0.64237 18.733 4.49625C21.7774 8.35013 21.7488 13.8016 18.664 17.6232L20.1637 18.6592C20.3979 18.8093 20.6143 18.9856 20.8086 19.1848ZM3.03678 11.0164C3.03678 15.1628 6.39402 18.5241 10.5354 18.5241C12.5241 18.5241 14.4314 17.7331 15.8377 16.3251C17.2439 14.9172 18.034 13.0076 18.034 11.0164C18.034 6.87008 14.6767 3.5088 10.5354 3.5088C6.39402 3.5088 3.03678 6.87008 3.03678 11.0164Z" fill="white"/>
</svg>

<svg width="27" height="28" fill="none" xmlns="http://www.w3.org/2000/svg"><path fill-rule="evenodd" clip-rule="evenodd" d="m20.809 19.184 5.998 6.007a.751.751 0 0 1-.03 1.036l-1.05 1.05a.75.75 0 0 1-1.064 0l-5.999-6.005a3.898 3.898 0 0 1-.45-.54L17.09 19.23a10.49 10.49 0 0 1-6.553 2.297 10.5 10.5 0 0 1-10.27-8.162A10.514 10.514 0 0 1 5.96 1.54a10.49 10.49 0 0 1 12.774 2.956 10.52 10.52 0 0 1-.069 13.127l1.5 1.036c.234.15.45.326.645.526ZM3.037 11.017c0 4.146 3.357 7.508 7.498 7.508a7.494 7.494 0 0 0 5.303-2.2 7.513 7.513 0 0 0 2.196-5.308c0-4.146-3.357-7.507-7.499-7.507-4.141 0-7.498 3.36-7.498 7.507Z" fill="#07484A"/></svg>
